viu.svg

<svg viewBox="0 0 24 24" xmlns="http://www.w3.org/2000/svg"><path d="M18.8882 11.9998L18.8882 11.9992C18.8882 10.6973 18.1537 9.56801 17.0759 9.00175L8.36113 5.04634C8.30323 5.01564 8.23896 4.99857 8.16919 4.99857C7.94194 4.99857 7.75636 5.18327 7.75636 5.41081L7.75636 7.72998C7.75636 8.03946 7.93962 8.30609 8.20278 8.42797L15.2908 11.3716C15.5355 11.4749 15.7069 11.7172 15.7069 11.9998L15.7069 12.0004C15.7069 12.2826 15.5355 12.5247 15.2908 12.6283L8.20278 15.5719C7.93962 15.6938 7.75636 15.9601 7.75636 16.2696L7.75636 18.5891C7.75636 18.8163 7.94194 19.0013 8.16919 19.0013C8.23896 19.0013 8.30323 18.9839 8.36113 18.9538L17.0759 14.9984C18.1537 14.4322 18.8882 13.3025 18.8882 12.0007L18.8882 11.9998Z M23.9996 12.0006C23.9996 18.6269 18.6273 24 11.9996 24C5.37236 24 0.000432412 18.6269 0.000432412 12.0006C0.000432412 5.37252 5.37236 0 11.9996 0C18.6273 0 23.9996 5.37252 23.9996 12.0006M11.9996 2.05833C6.45683 2.05833 1.96207 6.50937 1.96207 12.0006C1.96207 17.4895 6.45683 21.9414 11.9996 21.9414C17.5423 21.9414 22.0368 17.4895 22.0368 12.0006C22.0368 6.50937 17.5423 2.05833 11.9996 2.05833" fill="#f5b919"/></svg>

<svg viewBox="0 0 24 24" xmlns="http://www.w3.org/2000/svg"><path d="M18.888 12a3.382 3.382 0 0 0-1.812-2.998L8.36 5.046a.413.413 0 0 0-.605.364v2.32c0 .31.184.576.447.698l7.088 2.944a.682.682 0 0 1 0 1.257l-7.088 2.943a.769.769 0 0 0-.447.698v2.32a.413.413 0 0 0 .605.364l8.715-3.956a3.383 3.383 0 0 0 1.812-2.997V12ZM24 12c0 6.627-5.373 12-12 12-6.628 0-12-5.373-12-12S5.372 0 12 0c6.627 0 12 5.373 12 12M12 2.059c-5.543 0-10.038 4.451-10.038 9.943 0 5.489 4.495 9.94 10.038 9.94 5.542 0 10.037-4.451 10.037-9.94 0-5.492-4.495-9.943-10.037-9.943" fill="#f5b919"/></svg>
